iu/servicenow.svg

<svg version="1.1" xmlns="http://www.w3.org/2000/svg" x="0px" y="0px" viewBox="1.0000020265579224 1.0000050067901611 237 212" enable-background="new 0 0 237 212" xml:space="preserve" height="1em" width="1em">
  <path fill="#81B5A1" opacity="1.000000" stroke="none" d="M186.690277,207.993378 C178.568802,210.151840 172.048050,207.620773 165.745514,203.226593 C136.948273,183.148956 101.587234,182.414902 72.318108,200.858093 C67.635216,203.808899 62.546394,206.465668 57.281963,208.055328 C50.599739,210.073120 44.378723,207.504425 39.381046,202.929276 C19.592230,184.813553 7.923464,162.148071 4.156876,135.798660 C-0.818212,100.995125 8.109236,69.683121 31.102779,42.986397 C50.434345,20.541426 75.135948,7.229887 104.688866,3.961604 C143.893021,-0.374018 176.753342,12.994722 203.112091,41.832985 C220.952530,61.351604 230.553467,84.739609 232.169785,111.312607 C234.210434,144.862122 223.331100,173.770111 200.752762,198.296310 C197.064285,202.303009 191.686859,204.754883 186.690277,207.993378 M69.598068,151.830597 C88.732834,180.040451 127.385536,182.359192 149.884460,166.766373 C171.260529,151.951706 178.459106,130.920776 173.806595,106.081696 C169.433868,82.736259 154.994308,67.227188 132.044052,61.235481 C108.723091,55.146996 88.739433,62.052460 72.833084,80.287170 C56.923485,98.525604 55.221302,130.819382 69.598068,151.830597 z"/>
</svg>

<svg xmlns="http://www.w3.org/2000/svg" viewBox="1 1 237 212" xml:space="preserve" height="1em" width="1em">
  <path fill="#81B5A1" d="M186.69 207.993c-8.121 2.159-14.642-.372-20.944-4.766-28.798-20.078-64.159-20.812-93.428-2.369-4.683 2.95-9.772 5.608-15.036 7.197-6.682 2.018-12.903-.55-17.901-5.126-19.789-18.115-31.458-40.78-35.224-67.13-4.975-34.804 3.952-66.116 26.946-92.813C50.434 20.541 75.136 7.23 104.689 3.962c39.204-4.336 72.064 9.033 98.423 37.871 17.84 19.519 27.441 42.907 29.058 69.48 2.04 33.55-8.839 62.457-31.417 86.983-3.689 4.007-9.066 6.459-14.063 9.697M69.598 151.831c19.135 28.21 57.788 30.528 80.286 14.935 21.377-14.814 28.575-35.845 23.923-60.684-4.373-23.346-18.813-38.855-41.763-44.847-23.32-6.088-43.305.817-59.21 19.052-15.91 18.239-17.613 50.532-3.236 71.544z"/>
</svg>
